X: 157
T:Pasacorredoiras de Sárdoma
M:2/4
L:1/8
Q:350
C:Nazario Gonzalez (Moxenas)
R:Pasacorredoiras
K:C
 EF |: G2 FG | c2BA |G E3- | EG FE | F2DF | c2B2|
GE- E2- | EGEF |G2FG |c2BA | G E3- |EG FE |F2 DF | BA FD-|1
E4-|EGEF :|22 E4- | E3E|: GF/E/ DE | F3F | AG/F/ EF | G3E |
GF/E/ DE | FG AB | GE FA | G3E | GF/E/ DE | F3F | AG/F/ EF | 
G3E | GF/E/ DE | FG AB | GE FD- | E4- |1 E3E :|2 EG ||

